apps/static/images/header-blobs.svg

<svg width="953" height="654" viewBox="0 0 953 654" fill="none" xmlns="http://www.w3.org/2000/svg">
<path fill-rule="evenodd" clip-rule="evenodd" d="M88.4753 146.939C136.404 101.09 207.218 98.0448 271.924 83.4354C329.213 70.5008 388.819 44.2354 443.013 66.8923C495.846 88.9799 515.259 150.667 546.9 198.394C576.51 243.058 604.895 285.371 621.609 336.282C645.66 409.538 699.434 488.829 664.875 557.737C630.663 625.954 538.741 645.132 462.812 652.915C396.582 659.703 335.728 626.957 275.965 597.598C225.059 572.589 185.817 535.15 144.342 496.462C91.7966 447.446 13.1363 412.794 1.79617 341.846C-9.70967 269.863 35.8064 197.324 88.4753 146.939Z" fill="#DFE9FD"/>
<path fill-rule="evenodd" clip-rule="evenodd" d="M596.508 12.523C655.794 5.06443 719.823 -13.9583 771.216 17.6012C823.98 50.0027 836.343 120.165 864.137 176.869C898.355 246.677 960.288 309.153 952.295 387.03C943.821 469.605 896.115 557.913 821.853 588.889C748.568 619.458 675.243 541.969 596.508 535.439C527.921 529.751 458.697 582.742 395.901 553.563C329.024 522.488 288.981 450.529 261.811 379.92C233.188 305.536 199.288 215.155 239.336 146.682C279.65 77.7529 377.021 85.4472 450.091 58.001C499.196 39.5565 544.664 19.0454 596.508 12.523Z" fill="#44009B"/>
</svg>

<svg width="953" height="654" fill="none" xmlns="http://www.w3.org/2000/svg"><path fill-rule="evenodd" clip-rule="evenodd" d="M88.475 146.939c47.929-45.849 118.743-48.894 183.449-63.504 57.289-12.934 116.895-39.2 171.089-16.543 52.833 22.088 72.246 83.775 103.887 131.502 29.61 44.664 57.995 86.977 74.709 137.888 24.051 73.256 77.825 152.547 43.266 221.455-34.212 68.217-126.134 87.395-202.063 95.178-66.23 6.788-127.084-25.958-186.847-55.317-50.906-25.009-90.148-62.448-131.623-101.136C91.797 447.446 13.136 412.794 1.796 341.846c-11.506-71.983 34.01-144.522 86.68-194.907z" fill="#DFE9FD"/><path fill-rule="evenodd" clip-rule="evenodd" d="M596.508 12.523c59.286-7.459 123.315-26.481 174.708 5.078 52.764 32.402 65.127 102.564 92.921 159.268 34.218 69.808 96.151 132.284 88.158 210.161-8.474 82.575-56.18 170.883-130.442 201.859-73.285 30.569-146.61-46.92-225.345-53.45-68.587-5.688-137.811 47.303-200.607 18.124-66.877-31.075-106.92-103.034-134.09-173.643-28.623-74.384-62.523-164.765-22.475-233.238 40.314-68.93 137.685-61.235 210.755-88.681 49.105-18.444 94.573-38.956 146.417-45.478z" fill="#44009B"/></svg>
